src/assets/tokens/Verse.svg

<svg width="64" height="64" viewBox="0 0 64 64" fill="none" xmlns="http://www.w3.org/2000/svg">
<ellipse cx="32.5" cy="31" rx="23.5" ry="23" fill="white"/>
<path fill-rule="evenodd" clip-rule="evenodd" d="M32.0001 64C49.673 64 64 49.6731 64 32C64 14.3269 49.673 0 32.0001 0C14.327 0 0 14.3269 0 32C0 49.6731 14.327 64 32.0001 64ZM31.9864 52.7372C24.3288 39.5157 12.3779 18.8812 12.3779 18.8812H29.403L32.8195 24.7778H22.7083L35.4625 46.7352C35.4625 46.7352 33.344 50.3935 31.9864 52.7372ZM37.0429 44.0067L51.5949 18.8812H44.6503L37.0324 32.0591L34.3546 27.445H27.4321L37.0429 44.0067Z" fill="#0085FF"/>
</svg>

<svg fill="none" height="64" width="64" xmlns="http://www.w3.org/2000/svg"><ellipse cx="32.5" cy="31" fill="#fff" rx="23.5" ry="23"/><path clip-rule="evenodd" d="M32 64c17.673 0 32-14.327 32-32S49.673 0 32 0 0 14.327 0 32s14.327 32 32 32zm-.014-11.263L12.378 18.881h17.025l3.416 5.897H22.71l12.753 21.957-3.476 6.002zm5.057-8.73L51.595 18.88H44.65l-7.618 13.18-2.677-4.614h-6.923l9.61 16.562z" fill="#0085ff" fill-rule="evenodd"/></svg>
